X: 3380
T: BRITISH GRENADIERS
%R: march
B: James Kerr "Merry Melodies" v.3 p.42 #380
Z: 2016 John Chambers <jc:trillian.mit.edu>
M: 2/4
L: 1/16
K: D
uA2 |\
d2A2d2e2 | f2gf e2fg | a2d2 fedc | dDEF GABc |\
d2A2d2e2 | f2gf e2fg | a2d2 fedc | d6 :|
|: f2 |\
a3ba2g2 | f3ga2a2 | b2b2 agfe | (d4 c2)A2 |\
d2cd e2de | f2ef g2fg | a2d2 fedc | d6 :|

%%sep 1 1 500
%%sep 1 1 500

